images/clock.svg

<svg width="70" height="72" viewBox="0 0 70 72" fill="none" xmlns="http://www.w3.org/2000/svg">
<g clip-path="url(#clip0_297080_1787)" filter="url(#filter0_d_297080_1787)">
<path d="M65.5933 30.6025C65.5899 13.6978 51.8828 -0.00341734 34.9775 6.39362e-07C18.0728 0.00341861 4.37158 13.7109 4.375 30.6157C4.37793 43.9316 12.9888 55.7178 25.6738 59.7681C25.7949 59.8062 25.9209 59.8257 26.0474 59.8252C26.2886 59.8247 26.5249 59.7603 26.7324 59.6377C27.0024 59.478 27.2041 59.2241 27.2988 58.9248L35.0288 34.4248C37.1421 34.4141 38.8462 32.6919 38.835 30.5791C38.8242 28.4658 37.1025 26.7617 34.9893 26.7725C34.4209 26.7749 33.8599 26.9058 33.3491 27.1553L23.1372 16.9419C22.6304 16.4526 21.8232 16.4668 21.334 16.9731C20.8564 17.4678 20.8564 18.251 21.334 18.7456L31.5405 28.9639C30.7573 30.5625 31.2051 32.4922 32.6133 33.582L25.248 56.9277C10.6924 51.5659 3.23926 35.4199 8.60108 20.8643C13.9629 6.30859 30.1089 -1.14453 44.6646 4.21729C59.2202 9.5791 66.6733 25.7256 61.3115 40.2808C58.6919 47.3921 53.3096 53.1431 46.3872 56.2275L45.5913 52.479C45.4458 51.79 44.7686 51.3496 44.0796 51.4956C43.8623 51.542 43.6606 51.6441 43.4946 51.792L35.8208 58.6431C35.2944 59.1113 35.2476 59.9175 35.7163 60.4439C35.8687 60.6148 36.064 60.7417 36.2827 60.8115L46.0801 63.9385C46.7505 64.1538 47.4688 63.7852 47.6841 63.1143C47.7524 62.9024 47.7637 62.6768 47.7178 62.459L46.9356 58.7808C58.2642 54.0049 65.6196 42.8965 65.5933 30.6025ZM34.9844 29.3272C35.6885 29.3272 36.2598 29.8984 36.2598 30.6025C36.2598 31.3071 35.6885 31.8779 34.9844 31.8779C34.2798 31.8779 33.709 31.3071 33.709 30.6025C33.709 29.8984 34.2798 29.3272 34.9844 29.3272ZM39.1851 59.0552L43.5532 55.1587L44.7588 60.8394L39.1851 59.0552Z" fill="#2E2F42"/>
<path d="M33.709 6.37012V8.9209C33.709 9.62549 34.2798 10.1963 34.9844 10.1963C35.6885 10.1963 36.2598 9.62549 36.2598 8.9209V6.37012C36.2598 5.66602 35.6885 5.09473 34.9844 5.09473C34.2798 5.09473 33.709 5.66602 33.709 6.37012Z" fill="#4D5AE5"/>
<path d="M10.752 29.3271C10.0474 29.3271 9.47656 29.8984 9.47656 30.6025C9.47656 31.3071 10.0474 31.8779 10.752 31.8779H13.3027C14.0073 31.8779 14.5781 31.3071 14.5781 30.6025C14.5781 29.8984 14.0073 29.3271 13.3027 29.3271H10.752Z" fill="#4D5AE5"/>
<path d="M59.2162 31.8779C59.9208 31.8779 60.4916 31.3071 60.4916 30.6025C60.4916 29.8984 59.9208 29.3271 59.2162 29.3271H56.6655C55.9614 29.3271 55.3901 29.8984 55.3901 30.6025C55.3901 31.3071 55.9614 31.8779 56.6655 31.8779H59.2162Z" fill="#4D5AE5"/>
</g>
<defs>
<filter id="filter0_d_297080_1787" x="-1" y="0" width="72" height="72" filterUnits="userSpaceOnUse" color-interpolation-filters="sRGB">
<feFlood flood-opacity="0" result="BackgroundImageFix"/>
<feColorMatrix in="SourceAlpha" type="matrix" values="0 0 0 0 0 0 0 0 0 0 0 0 0 0 0 0 0 0 127 0" result="hardAlpha"/>
<feOffset dy="4"/>
<feGaussianBlur stdDeviation="2"/>
<feComposite in2="hardAlpha" operator="out"/>
<feColorMatrix type="matrix" values="0 0 0 0 0 0 0 0 0 0 0 0 0 0 0 0 0 0 0.25 0"/>
<feBlend mode="normal" in2="BackgroundImageFix" result="effect1_dropShadow_297080_1787"/>
<feBlend mode="normal" in="SourceGraphic" in2="effect1_dropShadow_297080_1787" result="shape"/>
</filter>
<clipPath id="clip0_297080_1787">
<rect width="64" height="64" fill="white" transform="translate(3)"/>
</clipPath>
</defs>
</svg>

<svg xmlns="http://www.w3.org/2000/svg" width="70" height="72" fill="none"><g clip-path="url(#a)" filter="url(#b)"><path fill="#2E2F42" d="M65.593 30.602C65.59 13.698 51.883-.003 34.977 0 18.073.003 4.372 13.71 4.375 30.616a30.61 30.61 0 0 0 21.299 29.152c.12.038.247.058.373.057.242 0 .478-.065.685-.187.27-.16.472-.414.567-.713l7.73-24.5a3.826 3.826 0 1 0-1.68-7.27L23.137 16.942a1.275 1.275 0 0 0-1.803 1.804l10.207 10.218a3.752 3.752 0 0 0 1.072 4.618l-7.365 23.346C10.692 51.566 3.239 35.42 8.601 20.864 13.963 6.31 30.11-1.145 44.665 4.217 59.22 9.58 66.673 25.726 61.312 40.281a28.087 28.087 0 0 1-14.925 15.947l-.796-3.749a1.275 1.275 0 0 0-2.096-.687l-7.674 6.851a1.275 1.275 0 0 0 .462 2.169l9.797 3.127a1.275 1.275 0 0 0 1.638-1.48l-.782-3.678a30.51 30.51 0 0 0 18.657-28.178Zm-30.609-1.275a1.276 1.276 0 1 1 0 2.552 1.276 1.276 0 0 1 0-2.552Zm4.201 29.728 4.368-3.896 1.206 5.68-5.574-1.784Z"/><path fill="#4D5AE5" d="M33.709 6.37v2.55a1.275 1.275 0 1 0 2.55 0V6.37a1.276 1.276 0 0 0-2.55 0ZM10.752 29.327a1.275 1.275 0 0 0 0 2.55h2.55a1.275 1.275 0 1 0 0-2.55h-2.55ZM59.216 31.878a1.275 1.275 0 1 0 0-2.55h-2.55a1.276 1.276 0 0 0 0 2.55h2.55Z"/></g><defs><clipPath id="a"><path fill="#fff" d="M3 0h64v64H3z"/></clipPath><filter id="b" width="72" height="72" x="-1" y="0" color-interpolation-filters="sRGB" filterUnits="userSpaceOnUse"><feFlood flood-opacity="0" result="BackgroundImageFix"/><feColorMatrix in="SourceAlpha" result="hardAlpha" values="0 0 0 0 0 0 0 0 0 0 0 0 0 0 0 0 0 0 127 0"/><feOffset dy="4"/><feGaussianBlur stdDeviation="2"/><feComposite in2="hardAlpha" operator="out"/><feColorMatrix values="0 0 0 0 0 0 0 0 0 0 0 0 0 0 0 0 0 0 0.25 0"/><feBlend in2="BackgroundImageFix" result="effect1_dropShadow_297080_1787"/><feBlend in="SourceGraphic" in2="effect1_dropShadow_297080_1787" result="shape"/></filter></defs></svg>
